modules/hawcons-filled/icons/folder-error.svg

<?xml version="1.0" encoding="UTF-8" standalone="no"?>
<svg width="32px" height="32px" viewBox="0 0 32 32" version="1.1" xmlns="http://www.w3.org/2000/svg" xmlns:xlink="http://www.w3.org/1999/xlink" xmlns:sketch="http://www.bohemiancoding.com/sketch/ns">
    <!-- Generator: Sketch 3.0.3 (7891) - http://www.bohemiancoding.com/sketch -->
    <title>icon 102 folder error</title>
    <desc>Created with Sketch.</desc>
    <defs></defs>
    <g id="Page-1" stroke="none" stroke-width="1" fill="none" fill-rule="evenodd" sketch:type="MSPage">
        <g id="icon-102-folder-error" sketch:type="MSArtboardGroup" fill="#929292">
            <path d="M19.0069444,26 L1.99328744,26 C0.899712682,26 0,25.1085295 0,24.008845 L0,13 L29,13 L29,20.9294118 L25.5,15 L19.0069444,26 L19.0069444,26 L19.0069444,26 Z M4.4408921e-16,12 L4.4408921e-16,5.991155 C4.4408921e-16,4.88967395 0.896666251,4 2.00276013,4 L13,4 L15,8 L26.9941413,8 C28.1029399,8 29,8.8932319 29,9.99508929 L29,12 L0,12 L4.4408921e-16,12 L4.4408921e-16,12 Z M25.5,17 L32,28 L19,28 L25.5,17 L25.5,17 Z M25,21 L25,24 L26,24 L26,21 L25,21 L25,21 Z M25,25 L25,26 L26,26 L26,25 L25,25 L25,25 Z" id="folder-error" sketch:type="MSShapeGroup"></path>
        </g>
    </g>
</svg>

<svg width="32" height="32" viewBox="0 0 32 32" xmlns="http://www.w3.org/2000/svg"><path d="M19.007 26H1.993A1.997 1.997 0 0 1 0 24.009V13h29v7.93L25.5 15l-6.493 11zM0 12V5.991C0 4.89.897 4 2.003 4H13l2 4h11.994A2 2 0 0 1 29 9.995V12H0zm25.5 5L32 28H19l6.5-11zm-.5 4v3h1v-3h-1zm0 4v1h1v-1h-1z" fill="#929292" fill-rule="evenodd"/></svg>
